packages/dnb-eufemia/assets/icons/apple_watch_medium.svg

<svg width="24" height="24" viewBox="0 0 24 24" fill="none" xmlns="http://www.w3.org/2000/svg">
<path d="M8.38889 18.6V21.5333C8.38889 21.9223 8.54107 22.2954 8.81196 22.5704C9.08284 22.8455 9.45024 23 9.83333 23H14.1667C14.5498 23 14.9172 22.8455 15.188 22.5704C15.4589 22.2954 15.6111 21.9223 15.6111 21.5333V18.6M8.38889 18.6H15.6111M8.38889 18.6C6.7934 18.6 5.5 17.2867 5.5 15.6667V8.33333C5.5 6.7133 6.7934 5.4 8.38889 5.4M15.6111 18.6C17.2066 18.6 18.5 17.2867 18.5 15.6667V8.33333C18.5 6.7133 17.2066 5.4 15.6111 5.4M15.6111 5.4V2.46667C15.6111 2.07768 15.4589 1.70463 15.188 1.42958C14.9172 1.15452 14.5498 1 14.1667 1H9.83333C9.45024 1 9.08284 1.15452 8.81196 1.42958C8.54107 1.70463 8.38889 2.07768 8.38889 2.46667V5.4M15.6111 5.4H8.38889" stroke="black" stroke-width="1.5" stroke-linecap="round" stroke-linejoin="round"/>
</svg>

<svg width="24" height="24" viewBox="0 0 24 24" fill="none" xmlns="http://www.w3.org/2000/svg"><path d="M8.389 18.6v2.933c0 .39.152.762.423 1.037.27.276.638.43 1.021.43h4.334c.383 0 .75-.154 1.021-.43.27-.275.423-.648.423-1.037V18.6m-7.222 0h7.222m-7.222 0c-1.596 0-2.889-1.313-2.889-2.933V8.333C5.5 6.713 6.793 5.4 8.389 5.4m7.222 13.2c1.596 0 2.889-1.313 2.889-2.933V8.333c0-1.62-1.293-2.933-2.889-2.933m0 0V2.467c0-.39-.152-.762-.423-1.037A1.433 1.433 0 0 0 14.167 1H9.833c-.383 0-.75.155-1.021.43-.27.275-.423.648-.423 1.037V5.4m7.222 0H8.39" stroke="#000" stroke-width="1.5" stroke-linecap="round" stroke-linejoin="round"/></svg>
